X:1
M:6/8
K:G
D|G3 F3|F3 G3|B2A G2B|E2G EGB|A3 -B2c|d3 -d2c|\
d2B A3|
B2A A2B|c3 c3|B3 A3|Bd2 d2d|ecd B2B|G2B Bcd|e2f e3|\
d2c B2G|
E2D F3|G3 -G3|A2G G3|B3 A3|B3 -B2d|edd B2G|E3 G3|\
A2G FGA|
F3 G3|FAA FAA|F2A B3|d2d c2c|d3 -c2||